X:1
T:A Father’s Prayer
T:A Father’s Prayer
T:Scott Werdebaugh
T:Scott Werdebaugh, 1992, 2018
T:© 1992, 2018  Scott Werdebaugh and New Heart Music - May freely copy and use for Christian worship or devotions without any changes. All other rights reserved.
T:© 1992, 2018  Scott Werdebaugh and New Heart Music - May freely copy and use for Christian worship or devotions without any changes. All other rights reserved.
C:Scott Werdebaugh
Z:© 1992, 2018  Scott Werdebaugh and New Heart Music - May freely copy and use for
Z:Christian worship or devotions without any changes. All other rights reserved.
%%score ( 1 2 ) 3
L:1/8
Q:1/4=106
M:6/8
K:Ab
V:1 treble 
V:2 treble 
V:3 bass 
V:1
"^Prayerfully" [CE] |: C2 [CE] [DF]2 [CE] | [B,E]2 [B,D] C2 [CE] | [DF]2 [FA] [EG]2 [DF] | %4
w: 1.~O|Lord, I hum- bly|come to You With|this my earn- est|
w: 2.~(O)|God, my Fath- er,|full of love, Your|grace a- bounds to|
w: 3.~(And)|Lord, when all our|days are done, When|life on earth is|
 [CE]4 z [CE] | [DF]2 [DF] [EG]2 [DG] | [CA]2 [CE] [Ec]2 [EA] | [=DB]2 [DF] [EG]2 [FA] | B6 | %9
w: plea: Lord,|help me to be-|come the man That|You would have me|be.|
w: me. Lord,|through my life may|You a- lone Be|all my child- ren|see.|
w: through, We|then will know life’s|great- est joy: E-|ter- nal life with|You.|
 [Ec]3 [Dc]2 [DB] | [CA]6 | [DF]3 [FA]2 [DF] | [CE]4 z [CE] | [DF]2 [DF] [EG]2 [DG] | %14
w: Purge me from|sin;|Cleanse me with-|in; And|fill my life with|
w: Purge us from|sin;|Cleanse us with-|in; And|fill our lives with|
w: There we shall|sing,|loud an- thems|ring, And|as we gath- er|
 [CA]2 [CE] [Ec]2 [EA] | [=DB]2 [DF] [EG]2 [FA] | B6 | [Ec]3 [Dc]2 [DB] | [CA]4- [CA] z | %19
w: You, O Lord, Your|love and pow’r to|know.|Help me each|day, *|
w: You, O Lord, Your|love and pow’r to|know.|Help us each|day, *|
w: ’round Your throne, We’ll|praise our Lord and|King:|“Thanks be to|God! *|
 [DF]3 [FA]2 [DF] | [CE]4 z [CE] | [DF]2 [DF] [EG]2 [DG] | [CA]2 [CE] [Ec]2 [EA] | %23
w: a- long life’s|way, To|keep You first in|all I do, And|
w: a- long life’s|way, To|keep You first in|all we do, And|
w: Praise Him a-|lone!” But|un- til then, O|Lord, we pray, To|
 [DB]2 [DB] [EA]2 [DG] |1,2 [CA]4 z [CE] :|3 [CA]4- [CA] |] x6 | %27
w: by Your grace, to|grow. O|||
w: by Your grace, to|grow. And|||
w: You the lost we’ll|~~ ~~|bring. *||
V:2
 x |: C2 x4 | x6 | x6 | x6 | x6 | x6 | x6 | (E3 D3) | x6 | x6 | x6 | x6 | x6 | x6 | x6 | (E3 D3) | %17
 x6 | x6 | x6 | x6 | x6 | x6 | x6 |1,2 x6 :|3 x5 |] x6 | %27
V:3
 [A,,A,] |: [A,,E,]2 [A,,A,] [D,A,]2 [A,,A,] | [E,G,]2 [E,G,] [E,A,]2 [A,,A,] | %3
 [D,A,]2 [D,F,] [E,B,]2 [E,B,] | [A,,A,]4 z [C,A,] | [D,A,]2 [D,F,] [E,B,]2 [E,B,] | %6
 [E,A,]2 [C,A,] [A,,A,]2 [C,A,] | [B,,F,]2 [B,,B,] [E,B,]2 [F,B,] | [E,G,]6 | %9
 [A,,A,]3 [E,B,]2 [E,G,] | [E,A,]6 | [D,A,]3 [D,F,]2 [D,A,] | [A,,A,]4 z [C,A,] | %13
 [D,A,]2 [D,F,] [E,B,]2 [E,B,] | [E,A,]2 [E,A,] [A,C]2 [A,C] | [F,B,]2 [B,,B,] [E,B,]2 [F,B,] | %16
 [E,G,]6 | [A,,A,]3 [E,B,]2 [E,G,] | [E,A,]4- [E,A,] z | [D,A,]3 [D,F,]2 [D,A,] | %20
 [A,,A,]4 z [C,A,] | [D,A,]2 [D,F,] [E,B,]2 [E,B,] | [E,A,]2 [E,A,] [A,C]2 [A,C] | %23
 [F,B,]2 [B,,F,] [C,A,]2 [E,B,] |1,2 [A,,E,]4 z [A,,A,] :|3 [A,,E,]4- [A,,E,] |] x6 | %27

